lib/brands/icons/adobe-lightroom.svg

<svg xmlns="http://www.w3.org/2000/svg" fill="none" aria-hidden="true" viewBox="0 0 48 48"><g id="adobe-lightroom-Icon"><g id="Group"><path id="bg" fill="#001E36" d="M6.00098 19.0286C6.00098 14.4681 6.00098 12.1879 6.88849 10.4461C7.66918 8.9139 8.91488 7.6682 10.4471 6.88752C12.1889 6 14.4691 6 19.0295 6H28.9724C33.5328 6 35.813 6 37.5549 6.88752C39.0871 7.6682 40.3328 8.9139 41.1135 10.4461C42.001 12.1879 42.001 14.4681 42.001 19.0286V28.9714C42.001 33.5319 42.001 35.8121 41.1135 37.5539C40.3328 39.0861 39.0871 40.3318 37.5549 41.1125C35.813 42 33.5328 42 28.9724 42H19.0295C14.4691 42 12.1889 42 10.4471 41.1125C8.91488 40.3318 7.66918 39.0861 6.88849 37.5539C6.00098 35.8121 6.00098 33.5319 6.00098 28.9714V19.0286Z"/><g id="Vector"><path fill="#31A8FF" d="M24.9069 32.5115H15.3918C15.2308 32.5115 15.1503 32.4207 15.1503 32.2391V16.5106C15.1325 16.3826 15.243 16.2694 15.3677 16.2877H18.314C18.4111 16.2736 18.4965 16.3631 18.4831 16.4611V29.3906H25.4141C25.559 29.3906 25.6153 29.4649 25.5832 29.6135L25.1485 32.2886C25.1447 32.4233 25.0342 32.5101 24.9069 32.5115Z"/><path fill="#31A8FF" d="M27.3243 20.1839H29.9567C30.1018 20.1852 30.2321 20.288 30.2706 20.4316C30.4635 20.8709 30.4872 21.4007 30.488 21.875C30.9394 21.3359 31.4838 20.8867 32.0939 20.5499C32.7482 20.1701 33.4901 19.9776 34.2419 19.9926C34.3666 19.9743 34.4771 20.0875 34.4592 20.2155V23.2126C34.4592 23.3283 34.3785 23.3859 34.2178 23.3859C33.1036 23.3071 31.3688 23.5771 30.5592 24.4758V32.2687C30.5592 32.4173 30.4948 32.4916 30.366 32.4916H27.5416C27.4029 32.512 27.2805 32.3839 27.3001 32.2439V23.7823C27.3001 22.6484 27.3241 21.4805 27.1552 20.3573C27.1292 20.254 27.2257 20.1578 27.3243 20.1839Z"/></g></g></g></svg>

<svg xmlns="http://www.w3.org/2000/svg" fill="none" aria-hidden="true" viewBox="0 0 48 48"><path fill="#001E36" d="M6.001 19.029c0-4.56 0-6.841.887-8.583a8.143 8.143 0 0 1 3.56-3.558C12.187 6 14.468 6 19.028 6h9.943c4.56 0 6.841 0 8.583.888a8.143 8.143 0 0 1 3.559 3.558C42 12.188 42 14.468 42 19.03v9.942c0 4.56 0 6.841-.887 8.583a8.143 8.143 0 0 1-3.56 3.558c-1.739.887-4.019.887-8.58.887H19.03c-4.56 0-6.84 0-8.582-.888a8.143 8.143 0 0 1-3.559-3.558c-.887-1.742-.887-4.022-.887-8.583V19.03Z"/><path fill="#31A8FF" d="M24.907 32.511h-9.515c-.161 0-.242-.09-.242-.272V16.511c-.017-.128.093-.242.218-.223h2.946c.097-.014.183.075.17.173v12.93h6.93c.145 0 .201.074.17.223l-.435 2.675c-.004.134-.115.221-.242.222Zm2.417-12.327h2.633a.333.333 0 0 1 .314.248c.193.439.216.969.217 1.443a5.67 5.67 0 0 1 1.606-1.325 4.113 4.113 0 0 1 2.148-.557c.125-.019.235.095.217.223v2.997c0 .115-.08.173-.241.173-1.114-.079-2.849.191-3.659 1.09v7.793c0 .148-.064.223-.193.223h-2.824c-.139.02-.261-.108-.242-.248v-8.462c0-1.134.024-2.302-.145-3.425-.026-.103.07-.2.17-.173Z"/></svg>
